X:1
T:Caterham, CM
T:Caterham, CM
T:Arthur Cottman (1842-1879)
T:Public Domain Courtesy of the Cyber Hymnal™
C:Arthur Cottman (1842-1879)
Z:Public Domain
Z:Courtesy of the Cyber Hymnal™
%%score ( 1 2 ) 3
L:1/8
Q:1/4=110
M:4/4
K:Bb
V:1 treble 
V:2 treble 
V:3 bass 
V:1
 [B,D]2 | [DF]2 [CF]2 [FB]2 D2 | [DF]2 [DG]2 [B,D]2 F2 | [DB]2 d2 [=Ec]2 [EG]2 | [FA]6 [FB]2 | %5
 [EA]2 [EG]2 [EF]2 [DB]2 | [=EA]3 [EG] F2 [CF]2 | [FB]2 [Fd]2 [Fd]2 [Ec]2 | [DB]6 |] %9
V:2
 x2 | x6 D2 | x6 (B,C) | x2 (GF) x4 | x8 | x8 | x4 F2 x2 | x8 | x6 |] %9
V:3
 [B,,F,]2 | [B,,B,]2 [E,A,]2 [D,B,]2 [B,,B,]2 | [B,,_A,]2 [B,,G,]2 [B,,F,]2 ([B,D][=A,C]) | %3
 [G,B,]2 [G,,B,]2 [C,G,]2 [C,C]2 | [F,C]6 [F,D]2 | [F,C]2 [F,B,]2 [F,A,]2 [G,B,]2 | %6
 [C,B,]3 [C,B,] [F,A,]2 [E,A,]2 | [D,B,]2 [B,,B,]2 [F,B,]2 [F,A,]2 | [B,,B,]6 |] %9

